packages/components/bolt-icons/src/svgs/pega/pega-arrows-two.svg

<svg viewBox="0 0 32 32" xmlns="http://www.w3.org/2000/svg"><path fill="#fff" d="m32 6.85a1 1 0 0 0 -.08-.39.69.69 0 0 0 -.13-.2.54.54 0 0 0 -.09-.12l-5.7-5.69a1 1 0 1 0 -1.41 1.42l4 4h-5.07a8.44 8.44 0 0 0 -7.52 4.81 8.44 8.44 0 0 0 -7.52-4.83h-5.05l4-4a1 1 0 1 0 -1.43-1.4l-5.7 5.69a.54.54 0 0 0 -.09.12.69.69 0 0 0 -.13.2 1 1 0 0 0 -.08.39 1.42 1.42 0 0 0 0 .2.53.53 0 0 0 0 .18 1 1 0 0 0 .22.33l5.78 5.69a1 1 0 0 0 1.4-1.42l-4-4h5.08a6.77 6.77 0 0 1 6.49 7v16a1 1 0 0 0 1 1h.03a1 1 0 0 0 1-1v-16a6.77 6.77 0 0 1 6.49-7h5.05l-4 4a1 1 0 0 0 .7 1.71 1 1 0 0 0 .71-.29l5.75-5.69a1 1 0 0 0 .22-.33.53.53 0 0 0 0-.18 1.42 1.42 0 0 0 .08-.2z"/></svg>

<svg id="icon-arrows-two" data-name="arrows-two" xmlns="http://www.w3.org/2000/svg" viewBox="0 0 32 32"><path d="M32,6.85h0a1,1,0,0,0-.08-.39.69.69,0,0,0-.13-.2.54.54,0,0,0-.09-.12L26,.45a1,1,0,1,0-1.41,1.42l4,4H23.52A8.44,8.44,0,0,0,16,10.68,8.44,8.44,0,0,0,8.48,5.85H3.43l4-4A1,1,0,1,0,6,.45L.3,6.14a.54.54,0,0,0-.09.12.69.69,0,0,0-.13.2A1,1,0,0,0,0,6.85H0a1.42,1.42,0,0,0,0,.2.53.53,0,0,0,0,.18,1,1,0,0,0,.22.33L6,13.25a1,1,0,0,0,1.4-1.42l-4-4H8.48a6.77,6.77,0,0,1,6.49,7v16a1,1,0,0,0,1,1H16a1,1,0,0,0,1-1v-16a6.77,6.77,0,0,1,6.49-7h5.05l-4,4a1,1,0,0,0,.7,1.71,1,1,0,0,0,.71-.29L31.7,7.56a1,1,0,0,0,.22-.33.53.53,0,0,0,0-.18A1.42,1.42,0,0,0,32,6.85Z"/></svg>
